icon-themes/sifr_svg/cmd/sc_flowchartshapes.flowchart-data.svg

<svg viewBox="0 0 16 16" xmlns="http://www.w3.org/2000/svg"><g fill="#555753"><path d="m5 2-2.5 12h8.5l2.5-12z" opacity=".35"/><path d="m4.1875 1-.1660156.796875-2.7519532 13.203125h10.5429688l2.917969-14zm1.625 2h6.458984l-2.083984 10h-6.4589844z"/></g></svg>

<svg xmlns="http://www.w3.org/2000/svg" viewBox="0 0 16 16">
  <path
     style="opacity:0.35;fill:#555753"
     d="M 5,2 2.5,14 H 11 L 13.5,2 Z"
     />
  <path
     style="fill:#555753"
     d="M 4.1875,1 4.0214844,1.796875 1.2695312,15 H 11.8125 L 14.730469,1 Z m 1.625,2 h 6.458984 L 10.1875,13 H 3.7285156 Z"
     />
</svg>
